X:1103
T:The Rivals
R:double jig
N:"collected by F.O'Neill"
B:O'Neill's 1103
Z:Transcribed by henrik.norbeck@mailbox.swipnet.se
M:6/8
L:1/8
K:A
a/f/|ecA ABA|dcBA Aaf|ecA ABA|dBG GBd|
dcBA ABA|ecA Ace|gfed edc|dBG A2:|
c/B/|Aaa aea|dcBA ABA|Ggf agfg|dBG GcB|
Aaa aea|fga efg|gfed edc|dBG A2d/B/:|
Aaa e2a|dcBA AcB|Aaa efg|dBG GcB|
Aaa efg|fga efg|gfed edc|dBG A2:|
